X: 1
T: Froggie On The Carport
M: 4/4
L: 1/8
R: reel
K: Amix
|: Ace^g a^g a2|Ace^g a^g a2|Acef gagf|edef gf g2|
Ace^g a^g a2|Ace^g a^g a2|efed cABG|A6 cB:|
|: ABcd e2 c2|d4 d3 B|GAB=c d2 B2|=c4 =c3 B|
ABcd e4|a2 a2 g4|efed cABG|A6 cB:|
